svg/u1f58b.svg

<svg viewBox="0 0 128 128" xmlns="http://www.w3.org/2000/svg">
  <g>
    <path d="M36.73,100.78c4.55-4.55,6.8-7.67,6.8-7.67l-3.9-3.9l-0.2-0.2l-3.9-3.9c0,0-3.12,2.25-7.67,6.8 c-4.79,4.79-11.52,7.74-14.72,10.94c-2.98,2.98-3.2,5.77-3.93,9.07c-0.52,2.36-1.45,5.17-3.08,7.58c-0.92,1.37-2.33,2.27-0.87,3.72 l0.15,0.15c1.46,1.46,2.35,0.05,3.72-0.87c2.41-1.62,5.22-2.56,7.58-3.08c3.3-0.72,6.09-0.95,9.07-3.93 C28.99,112.3,31.95,105.56,36.73,100.78z" fill="#84B0C1"/>
    <path d="M6.73,122.4c-0.99,0.78-1.23,1.06-1.38,0.9c-0.15-0.15,0.27-0.58,1.67-2.31c1.4-1.72,10.32-10.32,10.32-10.32l0.69,0.69 C18.04,111.36,8.28,121.17,6.73,122.4z"/>
    <circle cx="18.46" cy="110.19" r="1.96"/>
    <path d="M107.99,7.71c-1-0.88-2.75-2.48-2.75-2.48c-0.99-0.87-2.29-1.31-3.64-1.22 c-1.36,0.09-2.59,0.68-3.43,1.64c-3.92,3.83-7.84,7.66-11.76,11.49c-5.34,5.22-18.29,17.91-19.15,19c-0.86,1.09-0.28,1.7-0.18,1.81 c1.3,1.43,3.62,1.62,5.32,0.7c1.69-0.92,2.76-2.76,3.07-4.66c0.21-1.24,0.28-1.85,1.2-2.66c0.33-0.29,18.94-17.67,21.79-20.9 c0.47-0.54,1.88-1.67,3.44-0.48c0.25,0.19,5.63,4.72,5.63,4.72l3.42-3.89l-0.01-0.22C110.9,10.27,110.9,10.27,107.99,7.71z" fill="#FFC107"/>
    <path d="M74.15,54.08l-7.5-7.5C36.08,77.55,25.33,89.44,22.69,92.84c-0.46,0.6-0.41,1.44,0.12,1.98 l10.68,10.29c0.54,0.54,1.38,0.59,1.98,0.12c3.4-2.64,15.31-12.99,46.29-43.56C81.65,61.58,74.15,54.08,74.15,54.08z" fill="#424242"/>
    <path d="M105.09,10.36c-0.61-0.94-2.09-2.28-3.12-2.74c-1.17-0.52-2.03-0.01-2.78,0.65 c-1.32,1.16-10.07,10.24-11.98,12.63c-0.22,0.27-0.44,0.58-0.44,0.92c5-4.74,10.09-9.43,11.7-10.82c1.24-1.07,2.43-2.03,3.41-1.05 c0.1,0.1,0.77,0.64,2,1.67L105.09,10.36z" fill="#D89A00"/>
    <path d="M122.96,16.76c1.21-1.74-0.49-5.55-3.22-8.18c-2.73-2.63-6.45-4.46-8.18-3.22 c-1.73,1.25-22.99,16.08-47.54,41.8c-0.68,0.78-0.68,1.95,0,2.63L78.63,64.4c0.68,0.68,1.85,0.78,2.63,0 C106.89,39.75,121.76,18.5,122.96,16.76z" fill="#424242"/>
    <path d="M73.1,31.98c-0.76,0.5-0.46,2.79-0.94,3.96c-0.38,0.94-0.37,1.43,0.41,1.19 c0.83-0.25,1.77-1.52,1.77-3.47C74.34,32.71,73.9,31.45,73.1,31.98z" fill="#FFEE58"/>
    <path d="M17.12,105.19c-0.79,0.84-2.75,2.23-3.58,3.04c-0.88,0.86-1.41,2.79-2.04,4.29 c-0.5,1.2-1.08,1.23-0.95,0.22c0.14-1.09,0.3-2.33,0.38-2.83c0.16-1.01,0.43-2.02,0.87-2.95c1.52-3.23,4.88-5.15,6.31-5.85 c0.31-0.15,0.65,0.1,0.6,0.44C18.59,102.46,18.22,104.02,17.12,105.19z" fill="#A8E3F0"/>
    <path d="M119.75,8.58c-1.72-1.66-3.84-2.99-5.61-3.44c0,0,2.98,2.15,4.73,4.29 c1.74,2.14,2.86,5.18,2.01,6.82c-1.59,2.29-16.18,20.94-40.94,46.65l-1.29-0.98l-1.24,1.22c-28.15,27.7-38.8,36.96-42.28,39.8 l-1.34,2.39c0.23,0.13,0.48,0.22,0.74,0.22c0.32,0,0.65-0.1,0.92-0.32c3.3-2.56,14.56-12.33,43.36-40.67 c0.33,0.25,0.73,0.39,1.14,0.39c0.46,0,0.92-0.17,1.3-0.55c25.62-24.65,40.49-45.9,41.7-47.64 C124.17,15.02,122.48,11.21,119.75,8.58z" fill="#757575"/>
    <path d="M77.77,50.31c-3.02-3.02-6.52-5.78-9.66-7.37c0,0-0.77-0.05-1.5,0.76 c-0.55,0.61-0.68,1.47-0.68,1.47c2.38,1.05,5.85,3.3,9.77,7.21c2.94,2.94,5.34,6.05,6.74,8.76c0.29,0.55,0.5,1.03,0.67,1.47 c0,0,0.87,0.01,1.59-0.62c0.82-0.71,0.64-1.58,0.64-1.58C83.8,57.16,80.93,53.47,77.77,50.31z" fill="#FFC107"/>
    <path d="M73.43,54.63c-3.98-3.98-6.55-5.78-9.55-7.29c0,0-0.69,0.37-0.87,1.57c-0.12,0.77-0.05,1.4-0.05,1.4 l0.85-0.78c2.34,1.32,5.2,3.44,8.25,6.49c3.05,3.05,5.4,6.14,6.72,8.49l-0.78,0.85c0,0,0.63,0.07,1.4-0.05 c1.2-0.18,1.65-0.73,1.65-0.73C79.53,61.54,77.41,58.62,73.43,54.63z" fill="#212121"/>
    <path d="M115.14,12.94c-2.03-2.03-4.29-3.94-6.5-5.46c0,0-1.51-0.58-2.9,0.7s-1.49,2.62-1.49,2.62 c2.06,1.27,4.53,3.15,7.21,5.83c2.51,2.51,4.61,5.13,6.05,7.53c0,0,1.54-0.12,2.61-1.4c1.08-1.28,0.7-3,0.7-3 C119.26,17.44,117.27,15.07,115.14,12.94z" fill="#FFC107"/>
    <path d="M107.33,8.69c-0.52,0.11-1.01,0.51-1.04,1.04c-0.03,0.54,0.4,0.97,0.8,1.33 c1.26,1.14,2.56,2.3,4.17,2.84c0.36,0.12,0.81,0.18,1.06-0.1c0.16-0.18,0.17-0.44,0.15-0.68c-0.08-0.97-0.56-1.87-1.21-2.6 C110.26,9.38,108.95,8.35,107.33,8.69z" fill="#FFEE58"/>
    <path d="M36.72,104.23c-1.41-1.99-3.54-4.76-6.24-7.51c-2.43-2.47-4.86-4.11-6.76-5.14 c-0.43,0.51-0.77,0.93-1.03,1.27c-0.46,0.6-0.41,1.44,0.12,1.98l10.68,10.29c0.54,0.54,1.38,0.59,1.98,0.12 C35.8,104.98,36.21,104.64,36.72,104.23z" fill="#FFC107"/>
    <path d="M28.78,95.56c1.06,1,2.07,2.19,2.29,3.63c0.03,0.2,0.04,0.41-0.02,0.6 c-0.14,0.39-0.59,0.61-1.01,0.59c-0.42-0.02-0.8-0.23-1.15-0.46c-0.6-0.4-1.13-0.9-1.66-1.39c-1.06-0.99-3.97-2.83-2.92-4.64 C25.32,92.16,27.93,94.75,28.78,95.56z" fill="#FFEE58"/>
    <path d="M33.74,89.66c-1.11,0.87-4.4,2.43-1.87-1.53c0.6-0.93,2.63-3.44,3.49-4.45 c3.31-3.92,11.19-13.47,24.44-26.22c0,0,4.76-4.31,5.88-3.33C66.8,55.11,65.13,58,59.77,64C55.07,69.28,39.5,85.11,33.74,89.66z" fill="#757575"/>
    <path d="M82.28,40.95c0,0-3.51,4.24-6.06,2.09c-2.02-1.71,2.66-5.76,2.66-5.76 c0.12-0.13,16.17-15.21,20.94-19.04c1.96-1.58,4.46-3.34,5.15-2.73c0.69,0.61-0.45,2.55-3.46,5.54 C98.49,24.04,82.39,40.83,82.28,40.95z" fill="#757575"/>
  </g>
</svg>

<svg viewBox="0 0 128 128" xmlns="http://www.w3.org/2000/svg">
  <defs/>
  <path d="M36.73,100.78 C41.28,96.23 43.53,93.11 43.53,93.11 L39.63,89.21 L39.43,89.01 L35.53,85.11 C35.53,85.11 32.41,87.36 27.86,91.91 C23.07,96.7 16.34,99.65 13.14,102.85 C10.16,105.83 9.94,108.62 9.21,111.92 C8.69,114.28 7.76,117.09 6.13,119.5 C5.21,120.87 3.8,121.77 5.26,123.22 L5.41,123.37 C6.87,124.83 7.76,123.42 9.13,122.5 C11.54,120.88 14.35,119.94 16.71,119.42 C20.01,118.7 22.8,118.47 25.78,115.49 C28.99,112.3 31.95,105.56 36.73,100.78 Z" fill="#84B0C1"/>
  <path d="M6.73,122.4 C5.74,123.18 5.5,123.46 5.35,123.3 C5.2,123.15 5.62,122.72 7.02,120.99 C8.42,119.27 17.34,110.67 17.34,110.67 L18.03,111.36 C18.04,111.36 8.28,121.17 6.73,122.4 Z"/>
  <path d="M20.42,110.19 A1.96 1.96 0 1 1 16.5,110.19 A1.96 1.96 0 1 1 20.42,110.19 Z"/>
  <path d="M107.99,7.71 C106.99,6.83 105.24,5.23 105.24,5.23 C104.25,4.36 102.95,3.92 101.6,4.01 C100.24,4.1 99.01,4.69 98.17,5.65 C94.25,9.48 90.33,13.31 86.41,17.14 C81.07,22.36 68.12,35.05 67.26,36.14 C66.4,37.23 66.98,37.84 67.08,37.95 C68.38,39.38 70.7,39.57 72.4,38.65 C74.09,37.73 75.16,35.89 75.47,33.99 C75.68,32.75 75.75,32.14 76.67,31.33 C77,31.04 95.61,13.66 98.46,10.43 C98.93,9.89 100.34,8.76 101.9,9.95 C102.15,10.14 107.53,14.67 107.53,14.67 L110.95,10.78 L110.94,10.56 C110.9,10.27 110.9,10.27 107.99,7.71 Z" fill="#FFC107"/>
  <path d="M74.15,54.08 L66.65,46.58 C36.08,77.55 25.33,89.44 22.69,92.84 C22.23,93.44 22.28,94.28 22.81,94.82 L33.49,105.11 C34.03,105.65 34.87,105.7 35.47,105.23 C38.87,102.59 50.78,92.24 81.76,61.67 C81.65,61.58 74.15,54.08 74.15,54.08 Z" fill="#424242"/>
  <path d="M105.09,10.36 C104.48,9.42 103,8.08 101.97,7.62 C100.8,7.1 99.94,7.61 99.19,8.27 C97.87,9.43 89.12,18.51 87.21,20.9 C86.99,21.17 86.77,21.48 86.77,21.82 C91.77,17.08 96.86,12.39 98.47,11 C99.71,9.93 100.9,8.97 101.88,9.95 C101.98,10.05 102.65,10.59 103.88,11.62 L105.09,10.36 Z" fill="#D89A00"/>
  <path d="M122.96,16.76 C124.17,15.02 122.47,11.21 119.74,8.58 C117.01,5.95 113.29,4.12 111.56,5.36 C109.83,6.61 88.57,21.44 64.02,47.16 C63.34,47.94 63.34,49.11 64.02,49.79 L78.63,64.4 C79.31,65.08 80.48,65.18 81.26,64.4 C106.89,39.75 121.76,18.5 122.96,16.76 Z" fill="#424242"/>
  <path d="M73.1,31.98 C72.34,32.48 72.64,34.77 72.16,35.94 C71.78,36.88 71.79,37.37 72.57,37.13 C73.4,36.88 74.34,35.61 74.34,33.66 C74.34,32.71 73.9,31.45 73.1,31.98 Z" fill="#FFEE58"/>
  <path d="M17.12,105.19 C16.33,106.03 14.37,107.42 13.54,108.23 C12.66,109.09 12.13,111.02 11.5,112.52 C11,113.72 10.42,113.75 10.55,112.74 C10.69,111.65 10.85,110.41 10.93,109.91 C11.09,108.9 11.36,107.89 11.8,106.96 C13.32,103.73 16.68,101.81 18.11,101.11 C18.42,100.96 18.76,101.21 18.71,101.55 C18.59,102.46 18.22,104.02 17.12,105.19 Z" fill="#A8E3F0"/>
  <path d="M119.75,8.58 C118.03,6.92 115.91,5.59 114.14,5.14 C114.14,5.14 117.12,7.29 118.87,9.43 C120.61,11.57 121.73,14.61 120.88,16.25 C119.29,18.54 104.7,37.19 79.94,62.9 L78.65,61.92 L77.41,63.14 C49.26,90.84 38.61,100.1 35.13,102.94 L33.79,105.33 C34.02,105.46 34.27,105.55 34.53,105.55 C34.85,105.55 35.18,105.45 35.45,105.23 C38.75,102.67 50.01,92.9 78.81,64.56 C79.14,64.81 79.54,64.95 79.95,64.95 C80.41,64.95 80.87,64.78 81.25,64.4 C106.87,39.75 121.74,18.5 122.95,16.76 C124.17,15.02 122.48,11.21 119.75,8.58 Z" fill="#757575"/>
  <path d="M77.77,50.31 C74.75,47.29 71.25,44.53 68.11,42.94 C68.11,42.94 67.34,42.89 66.61,43.7 C66.06,44.31 65.93,45.17 65.93,45.17 C68.31,46.22 71.78,48.47 75.7,52.38 C78.64,55.32 81.04,58.43 82.44,61.14 C82.73,61.69 82.94,62.17 83.11,62.61 C83.11,62.61 83.98,62.62 84.7,61.99 C85.52,61.28 85.34,60.41 85.34,60.41 C83.8,57.16 80.93,53.47 77.77,50.31 Z" fill="#FFC107"/>
  <path d="M73.43,54.63 C69.45,50.65 66.88,48.85 63.88,47.34 C63.88,47.34 63.19,47.71 63.01,48.91 C62.89,49.68 62.96,50.31 62.96,50.31 L63.81,49.53 C66.15,50.85 69.01,52.97 72.06,56.02 C75.11,59.07 77.46,62.16 78.78,64.51 L78,65.36 C78,65.36 78.63,65.43 79.4,65.31 C80.6,65.13 81.05,64.58 81.05,64.58 C79.53,61.54 77.41,58.62 73.43,54.63 Z" fill="#212121"/>
  <path d="M115.14,12.94 C113.11,10.91 110.85,9 108.64,7.48 C108.64,7.48 107.13,6.9 105.74,8.18 C104.35,9.46 104.25,10.8 104.25,10.8 C106.31,12.07 108.78,13.95 111.46,16.63 C113.97,19.14 116.07,21.76 117.51,24.16 C117.51,24.16 119.05,24.04 120.12,22.76 C121.2,21.48 120.82,19.76 120.82,19.76 C119.26,17.44 117.27,15.07 115.14,12.94 Z" fill="#FFC107"/>
  <path d="M107.33,8.69 C106.81,8.8 106.32,9.2 106.29,9.73 C106.26,10.27 106.69,10.7 107.09,11.06 C108.35,12.2 109.65,13.36 111.26,13.9 C111.62,14.02 112.07,14.08 112.32,13.8 C112.48,13.62 112.49,13.36 112.47,13.12 C112.39,12.15 111.91,11.25 111.26,10.52 C110.26,9.38 108.95,8.35 107.33,8.69 Z" fill="#FFEE58"/>
  <path d="M36.72,104.23 C35.31,102.24 33.18,99.47 30.48,96.72 C28.05,94.25 25.62,92.61 23.72,91.58 C23.29,92.09 22.95,92.51 22.69,92.85 C22.23,93.45 22.28,94.29 22.81,94.83 L33.49,105.12 C34.03,105.66 34.87,105.71 35.47,105.24 C35.8,104.98 36.21,104.64 36.72,104.23 Z" fill="#FFC107"/>
  <path d="M28.78,95.56 C29.84,96.56 30.85,97.75 31.07,99.19 C31.1,99.39 31.11,99.6 31.05,99.79 C30.91,100.18 30.46,100.4 30.04,100.38 C29.62,100.36 29.24,100.15 28.89,99.92 C28.29,99.52 27.76,99.02 27.23,98.53 C26.17,97.54 23.26,95.7 24.31,93.89 C25.32,92.16 27.93,94.75 28.78,95.56 Z" fill="#FFEE58"/>
  <path d="M33.74,89.66 C32.63,90.53 29.34,92.09 31.87,88.13 C32.47,87.2 34.5,84.69 35.36,83.68 C38.67,79.76 46.55,70.21 59.8,57.46 C59.8,57.46 64.56,53.15 65.68,54.13 C66.8,55.11 65.13,58 59.77,64 C55.07,69.28 39.5,85.11 33.74,89.66 Z" fill="#757575"/>
  <path d="M82.28,40.95 C82.28,40.95 78.77,45.19 76.22,43.04 C74.2,41.33 78.88,37.28 78.88,37.28 C79,37.15 95.05,22.07 99.82,18.24 C101.78,16.66 104.28,14.9 104.97,15.51 C105.66,16.12 104.52,18.06 101.51,21.05 C98.49,24.04 82.39,40.83 82.28,40.95 Z" fill="#757575"/>
</svg>
